icons/testgofiles.svg

<!--
  - The MIT License (MIT)
  -
  - Copyright (c) 2015-2024 Elior "Mallowigi" Boukhobza
  -
  - Permission is hereby granted, free of charge, to any person obtaining a copy
  - of this software and associated documentation files (the "Software"), to deal
  - in the Software without restriction, including without limitation the rights
  - to use, copy, modify, merge, publish, distribute, sublicense, and/or sell
  - copies of the Software, and to permit persons to whom the Software is
  - furnished to do so, subject to the following conditions:
  -
  - The above copyright notice and this permission notice shall be included in all
  - copies or substantial portions of the Software.
  -
  - THE SOFTWARE IS PROVIDED "AS IS", WITHOUT WARRANTY OF ANY KIND, EXPRESS OR
  - IMPLIED, INCLUDING BUT NOT LIMITED TO THE WARRANTIES OF MERCHANTABILITY,
  - FITNESS FOR A PARTICULAR PURPOSE AND NONINFRINGEMENT. IN NO EVENT SHALL THE
  - AUTHORS OR COPYRIGHT HOLDERS BE LIABLE FOR ANY CLAIM, DAMAGES OR OTHER
  - LIABILITY, WHETHER IN AN ACTION OF CONTRACT, TORT OR OTHERWISE, ARISING FROM,
  - OUT OF OR IN CONNECTION WITH THE SOFTWARE OR THE USE OR OTHER DEALINGS IN THE
  - SOFTWARE.
  -
  -->

<svg  version="1.1" xmlns="http://www.w3.org/2000/svg" viewBox="0 0 512 512" width="16px" height="16px">
  <path fill="#82AAFF" data-iconColor="Test Go Folder"
        d="M158.7279663,389.1131897l-74.0367432-0.0001221l84.8234253-141.4821014h74.5700684l19.8955078,29.7441864C193.1090698,285.162262,159.9876099,338.8736877,158.7279663,389.1131897z M161.3778076,416.8182068H33.9144897l131.9580688-218.8084564V65.1816864h81.8540649v132.828064l50.1135254,78.9105682h32.4299316l-54.5804443-85.9611053V65.1816864h26.0755005c19.5045166,0,19.5045166-27.5949097,0-27.5949097H111.835083c-19.5045166,0-19.5045166,27.5949097-0.0004883,27.5949097h26.0749512v125.7775269L5.7651367,410.1037903c-12.4072876,21.1151123-4.6187134,34.3093262,21.729248,34.3093262h144.5474243C167.161499,436.0868225,163.5945435,426.7343445,161.3778076,416.8182068z M462.9741821,460.6809387c-45.6976929,26.7136536-108.1321716,15.4006042-124.8245239-42.520752c-9.8644714,20.6004639-25.9710083,37.4845581-45.1652832,47.1123962c-45.4778137,22.811676-107.2226868,2.9188538-115.1642914-59.5962524c-5.8154755-59.9190674,39.88414-96.9451904,66.8996277-106.2931824c42.9342804-14.192749,85.2783051,2.484375,99.920639,43.9907532l-46.1184387,12.8275146c-4.8991394-14.4698486-31.5296326-24.8897705-52.0002899-9.1839294c-32.1953278,21.0795898-31.6002655,74.1264343,7.2976685,82.0038147c20.1949615,2.7474976,33.7606354-7.8420105,43.9297028-24.130188l-50.0793304,0.113739l16.0913544-36.8213196h75.053009c32.5067139-97.316864,159.2840271-93.0556335,172.1683044-5.6087341C515.5617065,393.6553345,505.563446,435.7844849,462.9741821,460.6809387z M421.3243408,340.27771c-34.6987915,7.9231567-43.3467407,40.4496155-37.9908752,61.2894287c5.6997681,22.177948,27.7776489,36.7200623,55.7895813,22.8131714C484.0179749,402.0916138,472.2498474,328.6493225,421.3243408,340.27771z"/>
</svg>

<svg xmlns="http://www.w3.org/2000/svg" viewBox="0 0 512 512"><path fill="#82aaff" d="M158.728 389.113H84.691l84.824-141.482h74.57l19.895 29.744c-70.87 7.787-103.992 61.499-105.252 111.738m2.65 27.705H33.914L165.873 198.01V65.182h81.854V198.01l50.113 78.91h32.43l-54.58-85.96V65.181h26.075c19.505 0 19.505-27.595 0-27.595h-189.93c-19.504 0-19.504 27.595 0 27.595h26.075v125.777L5.765 410.104c-12.407 21.115-4.619 34.31 21.73 34.31h144.547c-4.88-8.327-8.447-17.68-10.664-27.596m301.596 43.863c-45.698 26.714-108.132 15.4-124.824-42.52-9.865 20.6-25.971 37.484-45.166 47.112-45.477 22.811-107.222 2.918-115.164-59.597-5.815-59.919 39.884-96.945 66.9-106.293 42.934-14.193 85.278 2.485 99.92 43.99l-46.118 12.828c-4.9-14.47-31.53-24.89-52-9.184-32.196 21.08-31.6 74.127 7.297 82.004 20.195 2.748 33.76-7.842 43.93-24.13l-50.08.114 16.092-36.821h75.053c32.507-97.317 159.284-93.056 172.168-5.61 4.58 31.081-5.419 73.21-48.008 98.107m-41.65-120.403c-34.698 7.923-43.346 40.45-37.99 61.29 5.7 22.177 27.777 36.72 55.789 22.812 44.895-22.288 33.127-95.73-17.799-84.102" data-iconColor="Test Go Folder"/></svg>
